icons/HSB-Collections/32x32/apps/google-chrome-beta.svg

<svg xmlns="http://www.w3.org/2000/svg" width="32" height="32" version="1">
 <circle style="opacity:.2" cx="16" cy="17" r="14"/>
 <path style="opacity:.1" d="m15.994 29.985c-7.752 0-13.993-6.2408-13.993-13.993 0-0.11734-0.003-0.23319 0-0.34982 0.18501 7.5885 6.3581 13.643 13.993 13.643 7.6346 0 13.808-6.0544 13.993-13.643 0.003 0.11663 0 0.23248 0 0.34982 0 7.752-6.2408 13.993-13.993 13.993z"/>
 <path style="fill:#109f5b" d="M 4.3496094,8.2519531 C 4.1087319,8.6179297 3.8859324,9.0101305 3.6601562,9.3984375 2.5720803,11.428863 2.0018396,13.696408 2,16 c 0,0.730032 0.055877,1.447013 0.1635869,2.146901 1.0330797,6.712825 9.0809351,5.186432 16.0828891,5.186432 C 18.318106,23.331233 16.928406,27.0031 17,27 l 5.84375,-8.03125 c -0.53102,0.86495 -2.7434,1.972478 -3.6875,2.517578 -3.021,1.7442 -6.857363,0.616783 -8.601562,-2.404297 z"/>
 <path style="fill:#ffce41" d="m 16.015625,9 c -0.01547,0 2.222016,0.9979485 3.166016,1.542969 2.412436,1.39284 2.664231,6.367355 2.669921,8.380859 l 0.404297,0.234375 -0.412109,0.712891 c -3.2e-5,7.04e-4 0,0.0332 0,0.0332 l -0.15625,0.236328 -5.117188,8.066407 c 0.03711,9.6e-4 0.07426,0.0041 0.111328,0.0039 0.193487,-0.0032 0.386888,-0.01031 0.580078,-0.02148 0.112132,-0.0052 0.224086,-0.0058 0.335938,-0.01367 0.441085,-0.03256 0.88038,-0.08601 1.316406,-0.160157 C 19.570312,26.214844 20.189312,19.715729 20,22 25.956277,20.950365 28.906073,24.013854 29.827393,18.196752 29.940986,17.479543 29.999872,16.745683 30,16 29.993667,13.540591 29.339558,11.126248 28.103516,9 Z"/>
 <path style="fill:#dd4d3e" d="m15.994141 2a14 14 0 0 0 -0.242188 0.0078125 14 14 0 0 0 -0.742187 0.0273437 14 14 0 0 0 -0.041016 0.0058594 14 14 0 0 0 -1.265625 0.1523438c-0.042854 0.007037-0.086138 0.012266-0.128906 0.0195312-0.002631 0.000447-0.005185 0.0014946-0.007813 0.0019532a14 14 0 0 0 -1.310547 0.2949218 14 14 0 0 0 -2.6054684 1.0136719 14 14 0 0 0 -0.3105468 0.1777344 14 14 0 0 0 -5.4570313 5.3085937l5.6894531 9.8554684 0.1191406 0.238282 0.0292969 0.017578 0.2675781 0.464844 2.4550778 1.972656 0.681641-0.291016 0.78125 0.492188c-0.09245-0.170384-0.185116-0.424514-0.275391-0.708985l4.591797-1.96289-4.751953-8.232422c0.434712-1.0028562 1.194822-1.7061504 2.529297-1.855469h12.103516a14 14 0 0 0 -0.759766 -1.1757812 14 14 0 0 0 -0.855469 -1.0703126 14 14 0 0 0 -0.037109 -0.0429687 14 14 0 0 0 -0.908203 -0.9316406 14 14 0 0 0 -0.095703 -0.0878907 14 14 0 0 0 -0.958985 -0.8027343 14 14 0 0 0 -0.134765 -0.1015625 14 14 0 0 0 -0.990235 -0.6738282 14 14 0 0 0 -0.191406 -0.1171874 14 14 0 0 0 -0.996094 -0.5429688 14 14 0 0 0 -0.283203 -0.1347656 14 14 0 0 0 -0.957031 -0.4003906 14 14 0 0 0 -0.369141 -0.1367188 14 14 0 0 0 -0.921875 -0.28125 14 14 0 0 0 -0.46289 -0.1191406 14 14 0 0 0 -0.861329 -0.171875 14 14 0 0 0 -0.548828 -0.0820313 14 14 0 0 0 -0.785156 -0.078125 14 14 0 0 0 -0.986328 -0.0488281 14 14 0 0 0 -0.005859 0z"/>
 <path style="opacity:.2;fill:#ffffff" d="m16 2a14 14 0 0 0 -14 14 14 14 0 0 0 0.0215 0.586 14 14 0 0 1 13.978 -13.586 14 14 0 0 1 13.979 13.414 14 14 0 0 0 0.021 -0.414 14 14 0 0 0 -14 -14z"/>
 <rect style="opacity:.2" width="14" height="14" x="-24" y="-23" rx="7" ry="7" transform="matrix(0,-1,-1,0,0,0)"/>
 <rect style="fill:#ffffff" width="14" height="14" x="-23" y="-23" rx="7" ry="7" transform="matrix(0,-1,-1,0,0,0)"/>
 <rect style="fill:#4587f3" width="10" height="10" x="-21" y="-21" rx="5" ry="5" transform="matrix(0,-1,-1,0,0,0)"/>
 <path style="fill:#4f4f4f" d="M 2.1582031 18 A 14 14 0 0 0 9.1894531 28.226562 C 9.2651875 28.268396 9.3414204 28.30913 9.4179688 28.349609 A 14 14 0 0 0 10.357422 28.802734 C 10.471779 28.852833 10.585322 28.904033 10.701172 28.951172 A 14 14 0 0 0 11.572266 29.269531 C 11.713898 29.316592 11.854567 29.367499 11.998047 29.410156 A 14 14 0 0 0 12.898438 29.638672 C 13.034361 29.669487 13.167405 29.707524 13.304688 29.734375 A 14 14 0 0 0 14.261719 29.878906 C 14.391757 29.895165 14.519371 29.918967 14.650391 29.931641 A 14 14 0 0 0 15.951172 29.998047 C 15.967585 29.998121 15.983575 29.999983 16 30 A 14 14 0 0 0 16.003906 30 C 16.007845 29.999995 16.011686 30.000008 16.015625 30 C 16.393238 29.999209 16.765862 29.977512 17.136719 29.947266 A 14 14 0 0 0 17.955078 29.847656 C 18.128128 29.823275 18.303479 29.806026 18.474609 29.775391 A 14 14 0 0 0 19.5625 29.53125 C 19.627724 29.51414 19.694892 29.502393 19.759766 29.484375 A 14 14 0 0 0 21.072266 29.048828 A 14 14 0 0 0 22.332031 28.484375 C 22.35442 28.473102 22.376115 28.460607 22.398438 28.449219 A 14 14 0 0 0 23.546875 27.791016 C 23.552535 27.78743 23.558798 27.784843 23.564453 27.78125 A 14 14 0 0 0 23.587891 27.763672 A 14 14 0 0 0 29.837891 18 L 2.1582031 18 z"/>
 <path style="opacity:0.2" d="m 9,20.999651 v 0.667969 1.699219 0.666015 2.298828 0.667969 h 2.667969 c 0.738575,0 1.330078,-0.927498 1.330078,-1.666016 0,-0.461006 -0.232162,-1.297962 -0.585938,-1.634765 0.353776,-0.336803 0.585938,-0.572197 0.585938,-1.033203 0,-0.738518 -0.591503,-1.666016 -1.330078,-1.666016 H 9.6660156 Z m 0.6660156,0.667969 h 2.0019534 c 0.380817,0 0.664062,0.617259 0.664062,0.998047 0,0.380788 -0.28372,0.682167 -0.664062,0.701172 H 9.6660156 Z m 8.2988284,0.332031 c 0,0.431926 0.0057,0.64484 0.0059,1 h -0.671875 v 0.666016 h 0.675781 c 0.0074,1.154663 0.03239,2.026533 0.169922,2.507812 0.09945,0.348038 0.316909,0.619344 0.597657,0.728516 0.28075,0.109171 0.557332,0.09766 0.890624,0.09766 v -0.667969 c -0.333292,0 -0.556187,-0.0122 -0.65039,-0.04883 -0.09421,-0.03663 -0.128114,-0.05779 -0.195313,-0.292969 -0.09283,-0.324863 -0.123731,-1.174264 -0.138671,-2.324218 h 0.65039 v -0.666016 h -0.65625 c -0.002,-0.356769 -0.0098,-0.567027 -0.0098,-1 z m -2.240235,1.001953 c -0.34445,0 -0.64818,0.07915 -0.910156,0.242188 -0.257124,0.163036 -0.457974,0.395169 -0.603515,0.697265 C 14.070246,24.243154 14,24.60697 14,25.028948 c 0,0.431567 0.07718,0.793429 0.232422,1.085937 0.160097,0.292506 0.380727,0.513459 0.662109,0.66211 0.281381,0.148651 0.608863,0.222656 0.982422,0.222656 0.266828,0 0.497349,-0.02129 0.691406,-0.06445 0.194056,-0.03836 0.390935,-0.101191 0.589844,-0.1875 V 26.19301 c -0.20376,0.08631 -0.403599,0.155175 -0.597656,0.203125 -0.189205,0.04316 -0.406874,0.06445 -0.654297,0.06445 -0.388112,0 -0.691843,-0.112517 -0.910156,-0.337891 -0.213464,-0.23017 -0.324286,-0.698403 -0.333985,-1.134766 h 0.0039 v 0.01172 h 2.666015 v -0.259766 c 0,-0.35005 -0.06432,-0.655122 -0.195312,-0.914062 -0.126138,-0.263729 -0.310164,-0.465519 -0.552735,-0.609375 -0.242571,-0.143855 -0.529479,-0.214843 -0.859375,-0.214844 z m 6.097657,0 c -0.266828,0 -0.499305,0.0213 -0.69336,0.06445 -0.194056,0.03837 -0.390935,0.09924 -0.589844,0.185547 v 0.554688 c 0.20376,-0.08631 0.4036,-0.155176 0.597657,-0.203125 0.189205,-0.04316 0.408828,-0.06445 0.65625,-0.06445 0.388113,0 0.689889,0.112517 0.908203,0.337891 0.101532,0.109477 0.179221,0.274963 0.234375,0.462891 l -0.416016,0.01367 c -0.731977,0.02139 -1.27298,0.149511 -1.625,0.384765 -0.352019,0.229908 -0.529297,0.558595 -0.529297,0.986328 0,0.438424 0.136093,0.762184 0.404297,0.970703 0.268205,0.203175 0.605776,0.304688 1.013672,0.304688 0.374369,0 0.668802,-0.05763 0.886719,-0.169922 0.124558,-0.06417 0.24385,-0.153254 0.361328,-0.257812 v 0.07227 0.355469 h 0.666016 v -2 h -0.002 c 7.9e-5,-0.0102 0.002,-0.01902 0.002,-0.0293 0,-0.431568 -0.07719,-0.793429 -0.232422,-1.085937 -0.160097,-0.292507 -0.380729,-0.51346 -0.66211,-0.66211 -0.281383,-0.148651 -0.60691,-0.220703 -0.980468,-0.220703 z m -6.105469,0.515625 c 0.325044,0 0.564449,0.102401 0.714844,0.308594 0.101957,0.136534 0.15634,0.312029 0.191406,0.505859 h -1.882813 c 0.05353,-0.205324 0.129526,-0.387221 0.25,-0.519531 0.179503,-0.196603 0.420924,-0.294922 0.726563,-0.294922 z m -6.0507814,0.515625 h 2.0019534 c 0.380817,0 0.664062,0.919993 0.664062,1.300781 0,0.380788 -0.283245,0.998047 -0.664062,0.998047 H 9.6660156 Z m 13.3554684,0.794922 c 0.005,0.05796 0.0102,0.114293 0.01172,0.171875 h -0.002 v 0.01172 0.974609 c -0.04292,0.05272 -0.08809,0.103416 -0.142578,0.146484 -0.251442,0.197828 -0.565083,0.298829 -0.939453,0.298829 -0.240266,0 -0.439249,-0.05764 -0.595703,-0.169922 -0.150865,-0.112281 -0.22461,-0.286743 -0.22461,-0.527344 0,-0.27268 0.104078,-0.48506 0.316406,-0.634766 0.217916,-0.149708 0.607255,-0.236426 1.166016,-0.257812 z"/>
 <path style="fill:#ffffff" d="M 9 20 L 9 20.667969 L 9 22.367188 L 9 23.033203 L 9 25.332031 L 9 26 L 11.667969 26 C 12.406544 26 12.998047 25.072502 12.998047 24.333984 C 12.998047 23.872978 12.765885 23.036022 12.412109 22.699219 C 12.765885 22.362416 12.998047 22.127022 12.998047 21.666016 C 12.998047 20.927498 12.406544 20 11.667969 20 L 9.6660156 20 L 9 20 z M 9.6660156 20.667969 L 11.667969 20.667969 C 12.048786 20.667969 12.332031 21.285228 12.332031 21.666016 C 12.332031 22.046804 12.048311 22.348183 11.667969 22.367188 L 9.6660156 22.367188 L 9.6660156 20.667969 z M 17.964844 21 C 17.964844 21.431926 17.970503 21.64484 17.970703 22 L 17.298828 22 L 17.298828 22.666016 L 17.974609 22.666016 C 17.982009 23.820679 18.006999 24.692549 18.144531 25.173828 C 18.243981 25.521866 18.46144 25.793172 18.742188 25.902344 C 19.022938 26.011515 19.29952 26 19.632812 26 L 19.632812 25.332031 C 19.29952 25.332031 19.076625 25.319833 18.982422 25.283203 C 18.888212 25.246573 18.854308 25.225412 18.787109 24.990234 C 18.694279 24.665371 18.663378 23.81597 18.648438 22.666016 L 19.298828 22.666016 L 19.298828 22 L 18.642578 22 C 18.640578 21.643231 18.632812 21.432973 18.632812 21 L 17.964844 21 z M 15.724609 22.001953 C 15.380159 22.001953 15.076429 22.081105 14.814453 22.244141 C 14.557329 22.407177 14.356479 22.63931 14.210938 22.941406 C 14.070246 23.243503 14 23.607319 14 24.029297 C 14 24.460864 14.077177 24.822726 14.232422 25.115234 C 14.392519 25.40774 14.613149 25.628693 14.894531 25.777344 C 15.175912 25.925995 15.503394 26 15.876953 26 C 16.143781 26 16.374302 25.978707 16.568359 25.935547 C 16.762415 25.897187 16.959294 25.834356 17.158203 25.748047 L 17.158203 25.193359 C 16.954443 25.279669 16.754604 25.348534 16.560547 25.396484 C 16.371342 25.439644 16.153673 25.460938 15.90625 25.460938 C 15.518138 25.460938 15.214407 25.348421 14.996094 25.123047 C 14.78263 24.892877 14.671808 24.424644 14.662109 23.988281 L 14.666016 23.988281 L 14.666016 24 L 17.332031 24 L 17.332031 23.740234 C 17.332031 23.390184 17.267708 23.085112 17.136719 22.826172 C 17.010581 22.562443 16.826555 22.360653 16.583984 22.216797 C 16.341413 22.072942 16.054505 22.001954 15.724609 22.001953 z M 21.822266 22.001953 C 21.555438 22.001953 21.322961 22.023256 21.128906 22.066406 C 20.93485 22.104776 20.737971 22.165644 20.539062 22.251953 L 20.539062 22.806641 C 20.742822 22.720331 20.942662 22.651465 21.136719 22.603516 C 21.325924 22.560356 21.545547 22.539062 21.792969 22.539062 C 22.181082 22.539062 22.482858 22.651579 22.701172 22.876953 C 22.802704 22.98643 22.880393 23.151916 22.935547 23.339844 L 22.519531 23.353516 C 21.787554 23.374906 21.246551 23.503027 20.894531 23.738281 C 20.542512 23.968189 20.365234 24.296876 20.365234 24.724609 C 20.365234 25.163033 20.501327 25.486793 20.769531 25.695312 C 21.037736 25.898487 21.375307 26 21.783203 26 C 22.157572 26 22.452005 25.942368 22.669922 25.830078 C 22.79448 25.765908 22.913772 25.676824 23.03125 25.572266 L 23.03125 25.644531 L 23.03125 26 L 23.697266 26 L 23.697266 24 L 23.695312 24 C 23.695391 23.9898 23.697266 23.980983 23.697266 23.970703 C 23.697266 23.539135 23.620081 23.177274 23.464844 22.884766 C 23.304747 22.592259 23.084115 22.371306 22.802734 22.222656 C 22.521351 22.074005 22.195824 22.001953 21.822266 22.001953 z M 15.716797 22.517578 C 16.041841 22.517578 16.281246 22.619979 16.431641 22.826172 C 16.533598 22.962706 16.587981 23.138201 16.623047 23.332031 L 14.740234 23.332031 C 14.793764 23.126707 14.86976 22.94481 14.990234 22.8125 C 15.169737 22.615897 15.411158 22.517578 15.716797 22.517578 z M 9.6660156 23.033203 L 11.667969 23.033203 C 12.048786 23.033203 12.332031 23.953196 12.332031 24.333984 C 12.332031 24.714772 12.048786 25.332031 11.667969 25.332031 L 9.6660156 25.332031 L 9.6660156 23.033203 z M 23.021484 23.828125 C 23.026484 23.886085 23.031683 23.942418 23.033203 24 L 23.03125 24 L 23.03125 24.011719 L 23.03125 24.986328 C 22.98833 25.039048 22.943164 25.089744 22.888672 25.132812 C 22.63723 25.33064 22.323589 25.431641 21.949219 25.431641 C 21.708953 25.431641 21.50997 25.373999 21.353516 25.261719 C 21.202651 25.149438 21.128906 24.974976 21.128906 24.734375 C 21.128906 24.461695 21.232984 24.249315 21.445312 24.099609 C 21.663228 23.949901 22.052567 23.863183 22.611328 23.841797 L 23.021484 23.828125 z"/>
</svg>

<svg xmlns="http://www.w3.org/2000/svg" width="32" height="32" version="1">
 <circle style="opacity:0.2" cx="16" cy="17" r="14"/>
 <path style="fill:#109f5b" d="M 4.349,8.252 C 4.108,8.618 3.885,9.01 3.66,9.398 2.5719,11.429 2.0017,13.696 2,16 2,23.732 8.268,28 16,28 16.072,27.998 16.143,27.995 16.215,27.992 L 22.844,18.969 C 22.313,19.834 20.101,20.941 19.156,21.487 16.135,23.231 12.299,22.104 10.554,19.083 L 4.349,8.253 Z"/>
 <path style="fill:#dd4d3e" d="M 15.997,2 C 15.467,2 15.211,2.022 15.01,2.035 14.075,2.089 13.162,2.286 12.256,2.51 9.206,3.357 5.931,5.463 3.883,9.01 L 9.988,19.586 12.443,21.559 18.223,19.088 13.471,10.855 C 13.905,9.853 14.666,9.149 16,9 H 28.104 C 27.098,7.262 24.553,3.816 19.645,2.5 18.063,2.065 16.611,2 16.003,2 Z"/>
 <path style="fill:#ffce41" d="M 16.016,9 C 16,9 18.238,9.998 19.182,10.543 21.594,11.936 21.846,16.91 21.852,18.924 L 22.256,19.158 16,27.992 C 16.037,27.993 16.074,27.996 16.111,27.996 16.305,27.993 16.498,27.986 16.691,27.975 22.996,27.683 29.999,24.482 30,16 29.994,13.541 29.34,11.126 28.104,9 Z"/>
 <path style="opacity:0.2;fill:#ffffff" d="M 16,2 A 14,14 0 0 0 2,16 14,14 0 0 0 2.0215,16.586 14,14 0 0 1 16,3 14,14 0 0 1 29.978,16.414 14,14 0 0 0 29.999,16 14,14 0 0 0 15.999,2 Z"/>
 <circle style="opacity:0.2" cx="16" cy="17" r="7"/>
 <circle style="fill:#ffffff" cx="16" cy="16" r="7"/>
 <circle style="fill:#4587f3" cx="16" cy="16" r="5"/>
 <path style="fill:#4f4f4f" d="M 2.1445,18 A 14,14 0 0 0 16,30 14,14 0 0 0 29.855,18 Z"/>
 <path style="opacity:0.2" d="M 9,21 V 27 H 11.668 C 12.407,27 12.998,26.072 12.998,25.334 12.998,24.873 12.766,24.036 12.412,23.699 12.766,23.362 12.998,23.127 12.998,22.666 12.998,21.927 12.407,21 11.668,21 Z M 9.666,21.668 H 11.668 C 12.049,21.668 12.332,22.285 12.332,22.666 12.332,23.046 12.048,23.348 11.668,23.367 H 9.666 Z M 17.965,22 C 17.965,22.432 17.971,22.644 17.971,23 H 17.299 V 23.666 H 17.975 C 17.982,24.82 18.007,25.692 18.145,26.173 18.244,26.522 18.461,26.793 18.742,26.902 19.023,27.011 19.3,27 19.633,27 V 26.332 C 19.3,26.332 19.077,26.319 18.982,26.283 18.888,26.246 18.854,26.225 18.787,25.99 18.694,25.665 18.663,24.816 18.648,23.666 H 19.299 V 23 H 18.643 C 18.641,22.643 18.633,22.433 18.633,22 Z M 15.725,23.002 C 15.38,23.002 15.076,23.081 14.814,23.244 14.557,23.407 14.356,23.639 14.211,23.941 14.07,24.243 14,24.607 14,25.029 14,25.461 14.077,25.822 14.232,26.115 14.393,26.407 14.613,26.628 14.895,26.777 15.176,26.926 15.503,27 15.877,27 16.144,27 16.374,26.978 16.568,26.935 16.762,26.897 16.959,26.834 17.158,26.748 V 26.193 C 16.954,26.279 16.755,26.348 16.561,26.396 16.371,26.439 16.154,26.461 15.906,26.461 15.518,26.461 15.214,26.348 14.996,26.123 14.716,25.824 14.718,25.316 14.666,25 H 17.332 V 24.74 C 17.332,24.39 17.268,24.085 17.137,23.826 17.011,23.562 16.827,23.36 16.584,23.216 16.341,23.073 16.054,23.002 15.725,23.002 Z M 21.822,23.002 C 21.555,23.002 21.323,23.023 21.129,23.066 20.935,23.104 20.738,23.165 20.539,23.252 V 23.806 C 20.743,23.72 20.943,23.651 21.137,23.603 21.326,23.56 21.546,23.539 21.793,23.539 22.181,23.539 22.483,23.651 22.701,23.877 22.803,23.986 22.88,24.152 22.936,24.339 L 22.52,24.353 C 21.788,24.375 21.247,24.503 20.895,24.738 20.543,24.968 20.365,25.297 20.365,25.724 20.365,26.163 20.501,26.486 20.77,26.695 21.038,26.898 21.375,27 21.783,27 22.158,27 22.452,26.942 22.67,26.83 22.794,26.766 22.914,26.676 23.031,26.572 V 26.644 27 H 23.697 V 24.97 C 23.697,24.539 23.62,24.177 23.465,23.884 23.305,23.592 23.084,23.371 22.803,23.222 22.521,23.074 22.196,23.002 21.822,23.002 Z M 15.717,23.517 C 16.042,23.517 16.281,23.62 16.432,23.826 16.534,23.962 16.588,24.138 16.623,24.332 H 14.74 C 14.794,24.126 14.87,23.944 14.99,23.812 15.17,23.616 15.411,23.517 15.717,23.517 Z M 9.666,24.033 H 11.668 C 12.049,24.033 12.332,24.953 12.332,25.334 12.332,25.714 12.049,26.332 11.668,26.332 H 9.666 Z M 23.021,24.828 23.031,25.986 C 22.988,26.039 22.943,26.089 22.889,26.132 22.637,26.33 22.324,26.431 21.949,26.431 21.709,26.431 21.51,26.374 21.353,26.261 21.203,26.149 21.129,25.975 21.129,25.734 21.129,25.461 21.233,25.249 21.445,25.099 21.663,24.95 22.053,24.863 22.611,24.841 Z"/>
 <path style="fill:#ffffff" d="M 9,20 V 26 H 11.668 C 12.407,26 12.998,25.073 12.998,24.334 12.998,23.873 12.766,23.036 12.412,22.699 12.766,22.362 12.998,22.127 12.998,21.666 12.998,20.927 12.407,20 11.668,20 Z M 9.666,20.668 H 11.668 C 12.049,20.668 12.332,21.285 12.332,21.666 12.332,22.047 12.048,22.348 11.668,22.367 H 9.666 Z M 17.965,21 C 17.965,21.432 17.971,21.645 17.971,22 H 17.299 V 22.666 H 17.975 C 17.982,23.821 18.007,24.693 18.145,25.174 18.244,25.522 18.461,25.793 18.742,25.902 19.023,26.012 19.3,26 19.633,26 V 25.332 C 19.3,25.332 19.077,25.32 18.982,25.283 18.888,25.247 18.854,25.225 18.787,24.99 18.694,24.665 18.663,23.816 18.648,22.666 H 19.299 V 22 H 18.643 C 18.641,21.643 18.633,21.433 18.633,21 Z M 15.725,22.002 C 15.38,22.002 15.076,22.081 14.814,22.244 14.557,22.407 14.356,22.639 14.211,22.941 14.07,23.244 14,23.607 14,24.029 14,24.461 14.077,24.823 14.232,25.115 14.393,25.408 14.613,25.629 14.895,25.777 15.176,25.926 15.503,26 15.877,26 16.144,26 16.374,25.979 16.568,25.936 16.762,25.897 16.959,25.834 17.158,25.748 V 25.193 C 16.954,25.28 16.755,25.349 16.561,25.396 16.371,25.44 16.154,25.461 15.906,25.461 15.518,25.461 15.214,25.348 14.996,25.123 14.716,24.824 14.718,24.317 14.666,24 H 17.332 V 23.74 C 17.332,23.39 17.268,23.085 17.137,22.826 17.011,22.562 16.827,22.361 16.584,22.217 16.341,22.073 16.055,22.002 15.725,22.002 Z M 21.822,22.002 C 21.555,22.002 21.323,22.023 21.129,22.066 20.935,22.105 20.738,22.166 20.539,22.252 V 22.807 C 20.743,22.72 20.943,22.651 21.137,22.604 21.326,22.56 21.546,22.539 21.793,22.539 22.181,22.539 22.483,22.652 22.701,22.877 22.803,22.986 22.88,23.152 22.936,23.34 L 22.52,23.354 C 21.788,23.375 21.247,23.503 20.895,23.738 20.543,23.968 20.365,24.297 20.365,24.725 20.365,25.163 20.501,25.487 20.77,25.695 21.038,25.898 21.375,26 21.783,26 22.158,26 22.452,25.942 22.67,25.83 22.794,25.766 22.914,25.677 23.031,25.572 V 25.645 26 H 23.697 V 23.971 C 23.697,23.539 23.62,23.177 23.465,22.885 23.305,22.592 23.084,22.371 22.803,22.223 22.521,22.074 22.196,22.002 21.822,22.002 Z M 15.717,22.518 C 16.042,22.518 16.281,22.62 16.432,22.826 16.534,22.963 16.588,23.138 16.623,23.332 H 14.74 C 14.794,23.127 14.87,22.945 14.99,22.812 15.17,22.616 15.411,22.518 15.717,22.518 Z M 9.666,23.033 H 11.668 C 12.049,23.033 12.332,23.953 12.332,24.334 12.332,24.715 12.049,25.332 11.668,25.332 H 9.666 Z M 23.021,23.828 23.031,24.986 C 22.988,25.039 22.943,25.09 22.889,25.133 22.637,25.331 22.324,25.432 21.949,25.432 21.709,25.432 21.51,25.374 21.354,25.262 21.203,25.149 21.129,24.975 21.129,24.734 21.129,24.462 21.233,24.249 21.445,24.1 21.663,23.95 22.053,23.863 22.611,23.842 Z"/>
</svg>
